!!!!SEGMENT: pl-kk--kk-i-3--006-005_anonim--officium-primum-de-annuntiatione-de-bmv-alleluia-prophetae-sancti.krn
!!!cenid: 15xx:582
!!!COM: Anonim
!!!COM-rismID: pe30004985
!!!CDT:
!!!CNT:
!!!OPR: Officium Primum de Annuntiatione de BMV
!!!OTL: Alleluia, Prophetae sancti
!!!OMV: 005
!!!PDT:
!!!AGN:
!!!YEC: Copyright 2022 Narodowy Instytut Fryderyka Chopina (https://polishscores.org)
!!!YEM: License CC-BY-4.0 (https://creativecommons.org/licenses/by/4.0)
!!!SMS-siglum: PL-Kk
!!!SMS-shelfmark: Kk.I.3
!!!SMS-shelfwork: 006-005 M
!!!SMS-variant:
!!!SMS-altvar:
!!!NIFC-rismSourceID: 1001145493
!!!NIFC-rismChildID: 1001145502
!!!NIFC-islandoraID: pl-kk:1170
!!!URL-pdf-islandora: https://repozytorium.nifc.pl/islandora/object/pl-kk%3A1170/datastream/PDF/view
!!!URL-scan: https://polish.musicsources.pl/pl/lokalizacje/galeria/rekopisy/5919 @EN{Scan on Polish Music Sources Website} @PL{Skany w portalu Dziedzictwo Muzyki Polskiej w otwartym dostępie}
!!!IIIF:
!!!ONB-nifc: UWAGA: Discantus (s. 20v-21v, skan 0023-0024), Tenor (s. 17v-18r, skan 0190), Bassus (s. 18r-19r, skan 0321-0322). Następna część: Mittit ad Virginem
!!!AIN: 1 bass 1 tenor 1 vox
!!!key: C
**kern	**text	**kern	**text	**kern	**text
*part3	*	*part2	*	*part1	*
*staff3	*	*staff2	*	*staff1	*
*I"Bassus	*	*I"Tenor	*	*I"Discantus	*
*I'B	*	*I'T	*	*I'S	*
*Ibass	*	*Itenor	*	*Ivox	*
*ICvox	*	*ICvox	*	*ICvox	*
*clefF4	*	*clefC5	*	*clefC3	*
*k[]	*	*k[]	*	*k[]	*
*C:	*	*C:	*	*C:	*
*M2/1	*	*M2/1	*	*M2/1	*
=1-	=1-	=1-	=1-	=1-	=1-
1C	Al-	1C	Al-	1c	Al-
1GG	.	1D	.	2B/	.
.	.	.	.	2.d/	-le-
=2-	=2-	=2-	=2-	=2-	=2-
1GG	-le-	1D	-le-	.	.
.	.	.	.	4c/	.
.	.	.	.	2B/	.
2.FF/	.	1F	.	2A/	.
.	.	.	.	1c\	.
4GG/	-lu	.	.	.	.
=3-	=3-	=3-	=3-	=3-	=3-
2AA/	.	1F	-lu-	.	.
2BB/	.	.	.	4B/	.
.	.	.	.	4A/	.
1C	.	1E	.	4G/	.
.	.	.	.	4A/	.
.	.	.	.	4B/	.
.	.	.	.	4c/	.
=4-	=4-	=4-	=4-	=4-	=4-
2.BB/	.	1D	.	2d/	.
.	.	.	.	2e/	.
4C/	.	.	.	.	.
*	*	*	*	*custos:e	*
1D	.	1D	-ia	1f	.
=5-	=5-	=5-	=5-	=5-	=5-
!	!	!	!	!LO:LB:g=original	!
!LO:TX:a:t=P:problem=nieczytelne ,&,	!	!	!	!LO:TX:a:t=P:nieczytelne,9,:problem	!
1AA	.	1E	.	1e	.
2r	.	1F	.	2c/	.
*custos:GG	*	*	*	*	*
2D/	.	.	.	1d\	.
=6-	=6-	=6-	=6-	=6-	=6-
!LO:LB:g=original	!	!	!	!	!
1GG	.	1G	.	.	.
.	.	.	.	4c/	.
.	.	.	.	4B/	.
1AA	.	1F	.	2A/	.
.	.	.	.	2c/	.
=7-	=7-	=7-	=7-	=7-	=7-
*	*	*lig	*	*2\right	*
2GG/	.	1G	.	2B/	.
2.C/	.	.	.	2.e\	.
.	.	1E	.	.	.
4BB/	.	.	.	4d/	.
4AA/	.	.	.	4c/	.
4GG/	.	.	.	4B/	.
*	*	*Xlig	*	*	*
=8-	=8-	=8-	=8-	=8-	=8-
1FF	.	1F	.	2A/	.
.	.	.	.	2.d/	.
*2\right	*	*	*	*	*
2.F\	.	[>1D	.	.	.
.	.	.	.	4c/	.
.	.	.	.	4B/	.
4E/	.	.	.	4A/	.
=9-	=9-	=9-	=9-	=9-	=9-
4D/	.	1D]	.	2B/	.
4C/	.	.	.	.	.
!	!	!	!	!LO:TX:t=P:JI:problem=w rękopisie poprawka c->d	!
2D/	.	.	.	1d	.
1GG	.	[<1C	.	.	.
.	.	.	.	2B/	.
=10-	=10-	=10-	=10-	=10-	=10-
1AA	.	1C]	.	1c	.
*	*	*	*	*custos:d	*
2r	.	1D	.	2A/	.
!	!	!	!	!LO:LB:g=original	!
1D\	.	.	.	2.d/	.
=11-	=11-	=11-	=11-	=11-	=11-
*	*	*lig	*	*	*
.	.	1F	.	.	.
.	.	.	.	4c/	.
2D/	.	.	.	4B/	.
.	.	.	.	4A/	.
1C	.	1E	.	1G	.
*	*	*Xlig	*	*	*
=12-	=12-	=12-	=12-	=12-	=12-
*	*	*lig	*	*	*
1D	.	1F	.	2.F/	.
.	.	.	.	4G/	.
*custos:F	*	*	*	*	*
2r	.	1D	.	2A/	.
!LO:LB:g=original	!	!	!	!	!
2.F\	.	.	.	2B/	.
*	*	*Xlig	*	*	*
=13-	=13-	=13-	=13-	=13-	=13-
*	*	*custos:G	*	*	*
.	.	1F	.	2c/	.
4E/	.	.	.	.	.
2D/	.	.	.	2d/	.
!	!	!LO:LB:g=original	!	!	!
2C/	.	1G	.	2e/	.
2BB/	.	.	.	2d/	.
=14-	=14-	=14-	=14-	=14-	=14-
2.AA/	.	1A	.	2c/	.
.	.	.	.	1f	.
4BB/	.	.	.	.	.
1C	.	1G	.	.	.
.	.	.	.	1e\	.
=15-	=15-	=15-	=15-	=15-	=15-
1D	.	1F	.	.	.
.	.	.	.	2d/	.
1C	.	1E	.	2e\	.
.	.	.	.	2.g\	.
=16-	=16-	=16-	=16-	=16-	=16-
1C	.	1E	.	.	.
*	*	*	*	*custos:e	*
.	.	.	.	4f\	.
!	!	!	!	!LO:LB:g=original	!
.	.	.	.	2e\	.
1GG	.	1G	.	1d	.
=17-	=17-	=17-	=17-	=17-	=17-
1r	.	1A	.	1c	.
*	*	*lig	*	*	*
2GG/	.	1G	.	2d\	.
1C/	.	.	.	2.e\	.
=18-	=18-	=18-	=18-	=18-	=18-
.	.	1E	.	.	.
.	.	.	.	4d/	.
2C/	.	.	.	4c/	.
.	.	.	.	4B/	.
*	*	*Xlig	*	*	*
*	*	*lig	*	*	*
1.D	.	1F	.	2A/	.
.	.	.	.	2.B/	.
=19-	=19-	=19-	=19-	=19-	=19-
.	.	1D	.	.	.
.	.	.	.	4c/	.
2BB/	.	.	.	2d\	.
*	*	*Xlig	*	*	*
1AA	.	1C	.	1e	.
=20-	=20-	=20-	=20-	=20-	=20-
*custos:D	*	*	*	*	*
2r	.	1D	.	2d\	.
!LO:LB:g=original	!	!	!	!	!
1D	.	.	.	1f	.
.	.	1E	.	.	.
2C/	lu-	.	.	1e\	lu-
=21-	=21-	=21-	=21-	=21-	=21-
1D	.	1F	.	.	.
.	.	.	.	2d/	.
*	*	*	*	*custos:f	*
!	!	!	!	!LO:N:vis=0	!
!LO:N:vis=0	!	!	!	!	!
1AA;>	-ya	1E	.	1e;<	-ya
=22||-	=22||-	=22||-	=22||-	=22||-	=22||-
!	!	!LO:PB:g=original	!	!LO:PB:g=original	!
1D	Pro-	1F	Pro-	2.f\	Pro-
.	.	.	.	4e/	.
*	*	*lig	*	*	*
2D/	-phe-	1F	-phe-	2d/	-phe-
2.F\	-te	.	.	2c/	.
=23-	=23-	=23-	=23-	=23-	=23-
.	.	1D	.	2d/	.
4E/	.	.	.	.	.
4D/	.	.	.	2.A/	.
4C/	.	.	.	.	.
*	*	*Xlig	*	*	*
*	*	*lig	*	*	*
2D/	.	1F	-te	.	.
.	.	.	.	4B/	.
1C/	.	.	.	2c/	.
=24-	=24-	=24-	=24-	=24-	=24-
.	.	1D	.	1d	-te
2BB/	.	.	.	.	.
*	*	*Xlig	*	*	*
2C/	.	1C	ſ(an)-	1e	san-
2AA/	.	.	.	.	.
=25-	=25-	=25-	=25-	=25-	=25-
1BB	san-	1D	.	1d	-cti
2AA/	.	1E	-cti	2r	.
*custos:GG	*	*	*	*	*
1AA/	-cti	.	.	2c/	pre-
=26-	=26-	=26-	=26-	=26-	=26-
.	.	1E	p(re)-	1B	-di-
!LO:LB:g=original	!	!	!	!	!
2GG/	Pre-	.	.	.	.
2AA/	-di-	1C	-di-	2A/	-ca-
2FF/	.	.	.	2.c/	-ve-
=27-	=27-	=27-	=27-	=27-	=27-
1C	-ca-	1E	-ca-	.	.
.	.	.	.	4B/	.
.	.	.	.	2A/	.
1C	-re	1G	-ve-	1G/	.
.	.	.	.	.	.
=28-	=28-	=28-	=28-	=28-	=28-
*	*	*lig	*	*	*
*	*	*	*	*custos:f	*
2.FF/	.	1A	.	2F/	-runt
!	!	!	!	!LO:LB:g=original	!
.	.	.	.	2.f\	prae-
4GG/	.	.	.	.	.
2AA/	.	1F	.	.	.
.	.	.	.	4e/	.
2BB/	.	.	.	4d/	.
.	.	.	.	4c/	.
*	*	*Xlig	*	*	*
=29-	=29-	=29-	=29-	=29-	=29-
*	*	*lig	*	*	*
2GG/	.	1G	.	2d/	-di-
2.C/	.	.	.	2.e/	-ca-
.	.	1E	.	.	.
4BB/	.	.	.	4d/	.
4AA/	.	.	.	4c/	.
4GG/	.	.	.	4B/	.
*	*	*Xlig	*	*	*
=30-	=30-	=30-	=30-	=30-	=30-
*	*	*lig	*	*	*
2AA/	.	1F	.	2c/	.
1BB	.	.	.	1d	-ve-
.	.	1D	.	.	.
4AA/	.	.	.	4c/	.
4GG/	.	.	.	4B/	.
*	*	*Xlig	*	*	*
=31-	=31-	=31-	=31-	=31-	=31-
1FF	.	1F	.	2A/	.
.	.	.	.	1c	.
1GG	.	1D	.	.	.
.	.	.	.	2B/	.
=32-	=32-	=32-	=32-	=32-	=32-
*custos:G	*	*	*	*	*
2r	.	1C	-r(u)nt	2.c/	.
!LO:PB:g=original	!	!	!	!	!
2G\	na-	.	.	.	.
.	.	.	.	4B/	.
2F/	.	1D	na-	2A/	.
2.D/	.	.	.	2.F/	.
=33-	=33-	=33-	=33-	=33-	=33-
.	.	1D	-ſci	.	.
*	*	*	*	*custos:c	*
4E/	.	.	.	4G/	.
*	*	*	*	*clefC4	*
!	!	!	!	!LO:LB:g=original	!
2.F/	.	.	.	2.A/	.
.	.	1F	ſal-	.	.
4E/	.	.	.	4G/	.
4D/	.	.	.	4F/	.
4C/	.	.	.	4E/	.
=34-	=34-	=34-	=34-	=34-	=34-
*	*	*custos:F	*	*	*
1D	.	1F	.	2D/	-runt
.	.	.	.	1d	na-
!	!	!LO:LB:g=original	!	!	!
1D	-sci	1F	-va-	.	.
.	.	.	.	4c\	.
.	.	.	.	4B\	.
=35-	=35-	=35-	=35-	=35-	=35-
1AA	.	1E	-to-	1c	.
2r	.	1F	.	2d\	-ſci
1D\	sal-	.	.	1f\	na-
=36-	=36-	=36-	=36-	=36-	=36-
.	.	1G	.	.	.
2C/	.	.	.	1e	.
*	*	*lig	*	*	*
1D	-va-	1F	.	.	.
.	.	.	.	2d\	-ſci
=37-	=37-	=37-	=37-	=37-	=37-
2C/	.	1E	-re(m)	2e\	.
2.AA/	-to-	.	.	2.c/	ſal-
*	*	*Xlig	*	*	*
.	.	1E,	de	.	.
*custos:C	*	*	*	*	*
4BB/	.	.	.	4d\	.
!LO:LB:g=original	!	!	!	!	!
2.C/	-rem	.	.	2.e\	-va-
=38-	=38-	=38-	=38-	=38-	=38-
.	.	1G	vir-	.	.
4BB/	.	.	.	4d\	.
4AA/	.	.	.	4c\	.
4GG/	.	.	.	4B/	.
2FF/	.	1A	-gi-	2.A/	-to-
2.F\	de	.	.	.	.
*	*	*	*	*custos:c	*
.	.	.	.	4B/	.
=39-	=39-	=39-	=39-	=39-	=39-
*	*	*	*	*clefC3	*
!	!	!	!	!LO:LB:g=original	!
.	.	1A	-ne	2c/	.
4E\	.	.	.	.	.
2D/	vi	.	.	2d/	.
2C/	.	1c	.	2e/	.
1F\	.	.	.	1c\	.
=40-	=40-	=40-	=40-	=40-	=40-
*	*	*lig	*	*	*
.	.	1A	.	.	.
4E/	.	.	.	1d	.
4D/	.	.	.	.	.
1E	.	1G	.	.	.
.	.	.	.	4c/	.
.	.	.	.	4B/	.
*	*	*Xlig	*	*	*
=41-	=41-	=41-	=41-	=41-	=41-
2F/	.	1F	.	2A/	.
2D/	.	.	.	1F	.
1C	.	1G	.	.	.
.	.	.	.	2E/	.
=42-	=42-	=42-	=42-	=42-	=42-
1FF	.	1A	.	2F/	-rem
.	.	.	.	1f	de
1C	.	1G	.	.	.
.	.	.	.	2e\	.
=43-	=43-	=43-	=43-	=43-	=43-
2r	.	1F	.	2f\	Vir-
1D	.	.	.	2d/	-gi-
.	.	1E	.	1g	-ne
2C/	.	.	.	.	.
=44-	=44-	=44-	=44-	=44-	=44-
*	*	*	*	*	*ij
*custos:AA	*	*	*	*	*
1D	.	1D	.	1f	de
!LO:LB:g=original	!	!	!	!	!
2AA/	.	[>1E	.	2e/	Vir-
1C/	.	.	.	1c\	.
=45-	=45-	=45-	=45-	=45-	=45-
.	.	1E]	.	.	.
4BB/	.	.	.	2c/	.
4AA/	.	.	.	.	.
1GG	.	1G	.	1d	.
=46-	=46-	=46-	=46-	=46-	=46-
*	*	*	*	*custos:d	*
2r	.	1A	.	2c/	.
*	*	*	*	*2\left	*
!	!	!	!	!LO:LB:g=original	!
2D/	.	.	.	2d\	-gi-
2C/	.	1c	.	2e\	-ne
*	*	*	*	*	*Xij
1F\	.	.	.	1c\	de
=47-	=47-	=47-	=47-	=47-	=47-
*	*	*lig	*	*	*
.	.	1A	.	.	.
4E/	.	.	.	1d	Vir-
4D/	.	.	.	.	.
1E	.	1G	.	.	.
.	.	.	.	4c\	.
.	.	.	.	4B\	.
*	*	*Xlig	*	*	*
=48-	=48-	=48-	=48-	=48-	=48-
*	*	*custos:G	*	*	*
2F/	.	1F	.	2A/	.
2D/	.	.	.	1F	.
!	!	!LO:LB:g=original	!	!	!
1C	.	1G	.	.	.
.	.	.	.	2E/	-gi-
=49-	=49-	=49-	=49-	=49-	=49-
1FF	.	1A	.	2F/	-ne
*	*	*	*	*	*ij
.	.	.	.	1f	de
1C	.	1G	.	.	.
.	.	.	.	2e\	Vir-
=50-	=50-	=50-	=50-	=50-	=50-
2r	.	1F	.	2f\	-gi-
1D	.	.	.	2d\	.
*	*	*lig	*	*	*
.	.	1E	.	1g	.
2C/	.	.	.	.	.
=51-	=51-	=51-	=51-	=51-	=51-
*custos:AA	*	*	*	*	*
1D	.	1D	.	2f\	.
.	.	.	.	4e\	.
.	.	.	.	4d\	.
*	*	*Xlig	*	*	*
!LO:LB:g=original	!	!	!	!	!
1AA	.	1E	.	2c/	.
.	.	.	.	1e\	.
=52-	=52-	=52-	=52-	=52-	=52-
*lig	*	*lig	*	*	*
1D	.	1F	.	.	.
.	.	.	.	1d	.
1AA	.	1E	.	.	.
.	.	.	.	2c/	.
*Xlig	*	*Xlig	*	*	*
=53-	=53-	=53-	=53-	=53-	=53-
*	*	*lig	*	*	*
2r	.	1F	.	2d\	.
2.D/	.	.	.	2.f\	.
.	.	1D	.	.	.
4C/	.	.	.	4e\	.
2BB/	.	.	.	2ryy	.
*	*	*	*	*custos:c	*
!	!	!	!	!LO:TX:t=P:problem=ubytek w rękopisie	!
*	*	*Xlig	*	*	*
=54-	=54-	=54-	=54-	=54-	=54-
2AA/	.	1F	.	2ryy	.
!	!	!	!	!LO:LB:g=original	!
1BB	.	.	.	2c/	.
.	.	1G	.	1d	.
4AA/	.	.	.	.	.
4GG/	.	.	.	.	.
=55-	=55-	=55-	=55-	=55-	=55-
2FF/	.	1A	.	4c/	-gi-
.	.	.	.	4B/	-ne
*	*	*	*	*	*Xij
1F	.	.	.	2.c/	Ma-
.	.	1G	.	.	.
.	.	.	.	4d\	.
1E\	.	.	.	2e\	.
=56-	=56-	=56-	=56-	=56-	=56-
*	*	*lig	*	*	*
.	.	1F	.	2A/	.
2D/	Mar-	.	.	2d\	.
2.E/	-tre	1E	.	2.c/	-tre
4D/	.	.	.	4B/	.
*	*	*Xlig	*	*	*
=57-	=57-	=57-	=57-	=57-	=57-
2C/	.	1E	ma-	4c\	.
.	.	.	.	4d\	.
1AA	.	.	.	4e\	.
.	.	.	.	4d\	.
*	*	*lig	*	*	*
.	.	1F	.	4c\	.
.	.	.	.	4B/	.
1D\	.	.	.	4A/	.
.	.	.	.	4G/	.
=58-	=58-	=58-	=58-	=58-	=58-
*	*	*	*	*custos:D	*
.	.	1D	-tre	2F/	.
*	*	*	*	*clefC4	*
*	*	*Xlig	*	*	*
!	!	!	!	!LO:PB:g=original	!
4C/	.	.	.	2D/	ſan-
*custos:AA	*	*	*	*	*
4BB/	.	.	.	.	.
!LO:LB:g=original	!	!	!	!	!
1AA	.	1C	ſan-	1E	.
=59-	=59-	=59-	=59-	=59-	=59-
2r	.	1D	.	2D/	.
2.A\	San-	.	.	2.F/	.
*	*	*lig	*	*	*
.	.	1F	.	.	.
4G\	.	.	.	4E/	.
2.F\	.	.	.	2D/	-cta
=60-	=60-	=60-	=60-	=60-	=60-
.	.	1D	.	2.A/	Ma-
4E/	.	.	.	.	.
1D	.	.	.	.	.
.	.	.	.	4G/	.
*	*	*Xlig	*	*	*
.	.	1F	.	2F/	.
2C/	-cta	.	.	1E/	.
=61-	=61-	=61-	=61-	=61-	=61-
*	*	*lig	*	*	*
1D	.	1F	-cta	.	.
.	.	.	.	2D/	.
2.C/	Ma-	1E	.	2E/	-ria
.	.	.	.	2.C/	ſan-
4D/	.	.	.	.	.
*	*	*Xlig	*	*	*
=62-	=62-	=62-	=62-	=62-	=62-
4E/	.	1C	Ma-	.	.
4F\	.	.	.	4D/	-cta
2G\	.	.	.	2E/	.
2F\	.	1D	-ri	2F/	.
2.A\	.	.	.	2.D/	Ma-
=63-	=63-	=63-	=63-	=63-	=63-
.	.	1D	.	.	.
4G\	.	.	.	4E/	.
4F\	.	.	.	4F/	.
*	*	*	*	*custos:A	*
4E/	.	.	.	4G/	.
*	*	*	*	*clefC3	*
*	*	*custos:E	*	*	*
!	!	!	!	!LO:LB:g=original	!
1D	.	[>1F	.	2A/	-ria
.	.	.	.	2.F/	.
=64-	=64-	=64-	=64-	=64-	=64-
*custos:C	*	*	*	*	*
1D	.	1F]	.	.	.
.	.	.	.	4G/	.
.	.	.	.	4A/	.
.	.	.	.	4B/	.
*	*	*clefC4	*	*	*
!LO:PB:g=original	!	!	!	!	!
1C	.	1E	.	1c	Ma-
=65-	=65-	=65-	=65-	=65-	=65-
1F	.	[>1D	.	2d/	-ri-
.	.	.	.	4c/	.
.	.	.	.	4B/	.
1F	.	1D]	.	1A	.
=66-	=66-	=66-	=66-	=66-	=66-
*custos:C	*	*	*	*custos:c	*
0El;;	-ria	0E	.	0Gl;>	-a
=-	=-	=-	=-	=-	=-
*-	*-	*-	*-	*-	*-
!!!system-decoration: [(s1,s2,s3)]
!!!RDF**kern: l = terminal long
!!!RDF**kern: < = below
!!!RDF**kern: > = above
!!!ENC: Anastazja Marusiak
!!!END: 2021-12-28
!!!ENC: Marta Chmielewska
!!!END: 2021-12-31
